X:3048
T:Stille natt
C:Ludwig van Beethoven
O:Germany
N:Norwegian lyrics
F:http://abc.musicaviva.com/tunes/beethoven-ludwig-van/be-stille-natt/be-stille-natt-1.abc
M:2/4
L:1/8
Q:1/4=63
K:D
"D"A2"G"B2|"D"A3"G"B|"A"A2A2|"D"A4|
w:Stil-le natt, \aa senk deg blid
w:Send din tr\os-te-ful-le fred
"D"d2"G"d2|"D"d3"Bb7"d|"A"(dc) (Bc)|"D"d4:|
w:o-ver jor-dens storm_ og_ strid.
w:til mitt tret-te hjer--te_ ned.
|:"A7/G"A2A>A|"D"Ad "A"c"D"d|"A7/G"A2A>A|"D"Af "A"(f/e/)"D"d|
w:Alt vin-ker fra det fjer-ne  venn-lig med nat-tens stjer--ne.
"A"A2A>A|"D"dd "Gmaj9"f"Em/G"e|"D/A"d2 "A"e>c|"D"D4:|
w:Akk, om jeg kun-ne, gjer-ne vand-ret jeg dit.
W:
W:Stille natt, \aa senk deg blid :over jordens storm og strid.
W:Send din tr\ostefulle fred til mitt trette hjerte ned.
W:Alt vinker fra det fjerne  vennlig med nattens stjerne.
W:Akk, om jeg kunne, gjerne vandret jeg dit.
W:
W:Hist fra kj\aerlighetens hav, lik et sakte sukk fra grav,
W:harpetoner milde g\aa til mitt hjertes dunkle vr\aa.
W:Klart skinner nattens stjerne, vinkende fra det fjerne.
W:Akk, om jeg kunne, gjerne vandret jeg dit.
W:
W:
W:  From Musica Viva - http://www.musicaviva.com
W:  the Internet center for free sheet music downloads.

